;FLAVOR:Marlin
;TIME:5742
;Filament used: 4.00039m
;Layer height: 0.2
;MINX:64.764
;MINY:48.116
;MINZ:0.28
;MAXX:154.585
;MAXY:137.041
;MAXZ:11.88
;Generated with Cura_SteamEngine 4.8.0
M140 S60
M105
M190 S60
M104 S215
M105
M109 S215
M82 ;absolute extrusion mode
; Ender 3 Custom Start G-code
G92 E0 ; Reset Extruder
G28 ; Home all axes
G1 Z2.0 F3000 ; Move Z Axis up little to prevent scratching of Heat Bed
G1 X0.1 Y20 Z0.3 F5000.0 ; Move to start position
G1 X0.1 Y200.0 Z0.3 F1500.0 E15 ; Draw the first line
G1 X0.4 Y200.0 Z0.3 F5000.0 ; Move to side a little
G1 X0.4 Y20 Z0.3 F1500.0 E30 ; Draw the second line
G92 E0 ; Reset Extruder
G1 Z2.0 F3000 ; Move Z Axis up little to prevent scratching of Heat Bed
G1 X5 Y20 Z0.3 F5000.0 ; Move over to prevent blob squish
G92 E0
G92 E0
G1 F1500 E-6.5
;LAYER_COUNT:59
;LAYER:0
M107
G0 F6000 X68.237 Y53.173 Z0.28
;TYPE:SKIRT
G1 F1500 E0
G1 F1200 X68.768 Y52.554 E0.03798
G1 X69.116 Y52.177 E0.06187
G1 X69.781 Y51.516 E0.10553
G1 X70.708 Y50.757 E0.16131
G1 X70.931 Y50.594 E0.17418
G1 X71.711 Y50.074 E0.21783
G1 X72.483 Y49.646 E0.25893
G1 X72.893 Y49.44 E0.28029
G1 X73.749 Y49.055 E0.324
G1 X74.719 Y48.719 E0.3718
G1 X75.024 Y48.629 E0.38661
G1 X75.934 Y48.402 E0.43028
G1 X76.92 Y48.247 E0.47676
G1 X77.378 Y48.196 E0.49821
G1 X78.421 Y48.129 E0.54688
G1 X79.245 Y48.116 E0.58525
G1 X140.855 Y48.117 E3.45407
G1 X141.539 Y48.127 E3.48593
G1 X142.168 Y48.154 E3.51524
G1 X142.418 Y48.172 E3.52691
G1 X143.478 Y48.301 E3.57664
G1 X143.777 Y48.352 E3.59076
G1 X144.962 Y48.622 E3.64735
G1 X145.171 Y48.682 E3.65748
G1 X146.061 Y48.979 E3.70117
G1 X146.733 Y49.262 E3.73512
G1 X147.033 Y49.4 E3.7505
G1 X148.221 Y50.037 E3.81326
G1 X148.462 Y50.186 E3.82646
G1 X149.449 Y50.874 E3.88248
G1 X149.609 Y50.999 E3.89193
G1 X150.563 Y51.837 E3.95106
G1 X150.639 Y51.912 E3.95603
G1 X150.967 Y52.249 E3.97793
G1 X151.154 Y52.45 E3.99071
G1 X151.763 Y53.164 E4.03441
G1 X152.114 Y53.638 E4.06188
G1 X152.242 Y53.821 E4.07228
G1 X152.696 Y54.526 E4.11132
G1 X152.793 Y54.69 E4.12019
G1 X153.412 Y55.903 E4.1836
G1 X153.529 Y56.172 E4.19726
G1 X153.949 Y57.304 E4.25349
G1 X154.006 Y57.488 E4.26246
G1 X154.262 Y58.473 E4.30984
G1 X154.316 Y58.729 E4.32203
G1 X154.471 Y59.658 E4.36588
G1 X154.478 Y59.715 E4.36856
G1 X154.558 Y60.833 E4.42075
G1 X154.583 Y62.065 E4.47813
G1 X154.585 Y62.289 E4.48856
G1 X154.582 Y88.651 E5.71608
G1 X154.572 Y89.354 E5.74882
G1 X154.52 Y90.277 E5.79187
G1 X154.366 Y91.83 E5.86454
G1 X154.361 Y91.872 E5.86651
G1 X154.15 Y94.399 E5.98458
G1 X154.013 Y96.854 E6.09908
G1 X153.934 Y100.693 E6.27788
G1 X153.932 Y123.283 E7.32976
G1 X153.924 Y123.877 E7.35742
G1 X153.912 Y124.255 E7.37503
G1 X153.892 Y124.673 E7.39452
G1 X153.808 Y125.607 E7.43819
G1 X153.642 Y126.54 E7.48231
G1 X153.562 Y126.899 E7.49944
G1 X153.319 Y127.804 E7.54307
G1 X153 Y128.685 E7.5867
G1 X152.869 Y129.004 E7.60276
G1 X152.476 Y129.855 E7.64641
G1 X152.041 Y130.624 E7.68755
G1 X151.84 Y130.948 E7.7053
G1 X151.312 Y131.723 E7.74897
G1 X150.656 Y132.522 E7.7971
G1 X150.348 Y132.863 E7.8185
G1 X149.69 Y133.532 E7.8622
G1 X148.792 Y134.285 E7.91677
G1 X148.587 Y134.439 E7.9287
G1 X148.176 Y134.733 E7.95223
G1 X147.383 Y135.234 E7.99591
G1 X146.886 Y135.502 E8.0222
G1 X146.509 Y135.693 E8.04188
G1 X145.655 Y136.08 E8.08554
G1 X144.659 Y136.428 E8.13467
G1 X144.321 Y136.528 E8.15108
G1 X143.411 Y136.756 E8.19477
G1 X142.398 Y136.915 E8.24251
G1 X141.96 Y136.963 E8.26303
G1 X140.934 Y137.027 E8.3109
G1 X139.93 Y137.041 E8.35765
G1 X78.493 Y137.039 E11.21842
G1 X77.812 Y137.029 E11.25013
G1 X77.187 Y137.002 E11.27926
G1 X76.922 Y136.983 E11.29163
G1 X75.894 Y136.86 E11.33984
G1 X75.625 Y136.815 E11.35254
G1 X74.386 Y136.534 E11.4117
G1 X74.168 Y136.471 E11.42226
G1 X73.279 Y136.172 E11.46594
G1 X72.616 Y135.892 E11.49945
G1 X72.269 Y135.732 E11.51724
G1 X71.435 Y135.304 E11.56089
G1 X70.604 Y134.781 E11.60661
G1 X70.248 Y134.534 E11.62679
G1 X69.501 Y133.967 E11.67046
G1 X68.788 Y133.321 E11.71526
G1 X68.704 Y133.238 E11.72076
G1 X68.333 Y132.853 E11.74565
G1 X68.187 Y132.694 E11.75571
G1 X67.582 Y131.977 E11.79939
G1 X67.198 Y131.447 E11.82987
G1 X66.933 Y131.058 E11.85178
G1 X66.439 Y130.261 E11.89544
G1 X65.934 Y129.247 E11.94819
G1 X65.815 Y128.973 E11.9621
G1 X65.375 Y127.772 E12.02166
G1 X65.317 Y127.58 E12.031
G1 X65.076 Y126.63 E12.07664
G1 X65.024 Y126.379 E12.08857
G1 X64.893 Y125.616 E12.12462
G1 X64.886 Y125.564 E12.12706
G1 X64.79 Y124.311 E12.18558
G1 X64.766 Y123.082 E12.24282
G1 X64.764 Y122.867 E12.25283
G1 X64.765 Y96.433 E13.48371
G1 X64.768 Y96.112 E13.49866
G1 X64.776 Y95.789 E13.5137
G1 X64.786 Y95.531 E13.52572
G1 X64.823 Y94.965 E13.55214
G1 X64.904 Y94.084 E13.59333
G1 X65.045 Y92.745 E13.65603
G1 X65.241 Y90.197 E13.77502
G1 X65.362 Y87.707 E13.8911
G1 X65.415 Y84.595 E14.03603
G1 X65.417 Y61.811 E15.09695
G1 X65.424 Y61.328 E15.11944
G1 X65.437 Y60.937 E15.13766
G1 X65.462 Y60.438 E15.16092
G1 X65.549 Y59.504 E15.2046
G1 X65.644 Y58.919 E15.2322
G1 X65.662 Y58.825 E15.23666
G1 X65.79 Y58.245 E15.26431
G1 X65.857 Y57.975 E15.27727
G1 X66.121 Y57.075 E15.32094
G1 X66.32 Y56.539 E15.34756
G1 X66.4 Y56.339 E15.35759
G1 X66.7 Y55.657 E15.39229
G1 X66.788 Y55.474 E15.40174
G1 X67.23 Y54.647 E15.44541
G1 X67.536 Y54.158 E15.47227
G1 X67.686 Y53.932 E15.4849
G1 X68.237 Y53.173 E15.52857
G0 F6000 X68.561 Y53.409
G1 F1200 X69.062 Y52.825 E15.5644
G1 X69.41 Y52.448 E15.58829
G1 X70.063 Y51.799 E15.63116
G1 X70.944 Y51.08 E15.68411
G1 X71.167 Y50.917 E15.69697
G1 X71.933 Y50.407 E15.73982
G1 X72.663 Y50.003 E15.77867
G1 X73.073 Y49.797 E15.80004
G1 X73.913 Y49.42 E15.84291
G1 X74.832 Y49.102 E15.88819
G1 X75.137 Y49.012 E15.903
G1 X76.031 Y48.79 E15.94589
G1 X76.964 Y48.644 E15.98987
G1 X77.422 Y48.593 E16.01133
G1 X78.428 Y48.529 E16.05826
G1 X79.419 Y48.515 E16.10441
G1 X140.849 Y48.517 E18.96485
G1 X141.533 Y48.527 E18.9967
G1 X142.139 Y48.553 E19.02495
G1 X142.389 Y48.571 E19.03662
G1 X143.41 Y48.695 E19.08451
G1 X143.709 Y48.746 E19.09864
G1 X144.852 Y49.007 E19.15323
G1 X145.061 Y49.067 E19.16335
G1 X145.934 Y49.359 E19.20622
G1 X146.566 Y49.625 E19.23815
G1 X146.866 Y49.763 E19.25352
G1 X148.01 Y50.377 E19.31398
G1 X148.251 Y50.526 E19.32717
G1 X149.203 Y51.189 E19.38119
G1 X149.363 Y51.314 E19.39065
G1 X150.283 Y52.122 E19.44766
G1 X150.359 Y52.197 E19.45263
G1 X150.674 Y52.522 E19.47371
G1 X150.861 Y52.723 E19.48649
G1 X151.458 Y53.423 E19.52933
G1 X151.786 Y53.867 E19.55504
G1 X151.914 Y54.05 E19.56544
G1 X152.352 Y54.73 E19.6031
G1 X152.449 Y54.894 E19.61197
G1 X153.045 Y56.062 E19.67303
G1 X153.162 Y56.331 E19.68669
G1 X153.567 Y57.422 E19.74088
G1 X153.624 Y57.606 E19.74985
G1 X153.871 Y58.555 E19.79551
G1 X153.925 Y58.811 E19.80769
G1 X154.074 Y59.707 E19.84999
G1 X154.081 Y59.764 E19.85266
G1 X154.158 Y60.841 E19.90294
G1 X154.183 Y62.073 E19.96032
G1 X154.185 Y62.289 E19.97038
G1 X154.182 Y88.646 E21.19767
G1 X154.172 Y89.349 E21.23041
G1 X154.122 Y90.238 E21.27187
G1 X153.968 Y91.786 E21.3443
G1 X153.753 Y94.343 E21.46379
G1 X153.613 Y96.85 E21.58071
G1 X153.534 Y100.685 E21.75932
G1 X153.532 Y123.278 E22.81134
G1 X153.524 Y123.872 E22.839
G1 X153.513 Y124.236 E22.85596
G1 X153.493 Y124.654 E22.87545
G1 X153.409 Y125.57 E22.91828
G1 X153.251 Y126.453 E22.96005
G1 X153.171 Y126.812 E22.97718
G1 X152.932 Y127.701 E23.02004
G1 X152.63 Y128.533 E23.06126
G1 X152.499 Y128.852 E23.07731
G1 X152.113 Y129.687 E23.12015
G1 X151.701 Y130.413 E23.15902
G1 X151.5 Y130.737 E23.17677
G1 X150.982 Y131.497 E23.2196
G1 X150.359 Y132.254 E23.26525
G1 X150.051 Y132.595 E23.28665
G1 X149.405 Y133.251 E23.32952
G1 X148.552 Y133.965 E23.38131
G1 X148.347 Y134.119 E23.39325
G1 X147.949 Y134.404 E23.41605
G1 X147.17 Y134.895 E23.45893
G1 X146.706 Y135.145 E23.48347
G1 X146.329 Y135.336 E23.50315
G1 X145.49 Y135.716 E23.54603
G1 X144.545 Y136.044 E23.59261
G1 X144.207 Y136.144 E23.60903
G1 X143.314 Y136.367 E23.65188
G1 X142.355 Y136.517 E23.69708
G1 X141.917 Y136.565 E23.7176
G1 X140.928 Y136.627 E23.76374
G1 X139.93 Y136.641 E23.81022
G1 X78.499 Y136.639 E26.6707
G1 X77.818 Y136.629 E26.70242
G1 X77.216 Y136.603 E26.73047
G1 X76.951 Y136.584 E26.74284
G1 X75.96 Y136.466 E26.78932
G1 X75.691 Y136.421 E26.80202
G1 X74.497 Y136.149 E26.85904
G1 X74.279 Y136.086 E26.8696
G1 X73.407 Y135.793 E26.91244
G1 X72.784 Y135.529 E26.94395
G1 X72.437 Y135.369 E26.96174
G1 X71.618 Y134.948 E27.00462
G1 X70.832 Y134.452 E27.0479
G1 X70.476 Y134.205 E27.06807
G1 X69.744 Y133.648 E27.1109
G1 X69.069 Y133.036 E27.15333
G1 X68.985 Y132.953 E27.15883
G1 X68.627 Y132.582 E27.18283
G1 X68.481 Y132.423 E27.19289
G1 X67.889 Y131.719 E27.23572
G1 X67.529 Y131.222 E27.26429
G1 X67.264 Y130.833 E27.28621
G1 X66.779 Y130.05 E27.3291
G1 X66.301 Y129.088 E27.37912
G1 X66.182 Y128.814 E27.39303
G1 X65.758 Y127.656 E27.45045
G1 X65.7 Y127.464 E27.45979
G1 X65.467 Y126.549 E27.50375
G1 X65.415 Y126.298 E27.51569
G1 X65.29 Y125.562 E27.55045
G1 X65.283 Y125.51 E27.55289
G1 X65.19 Y124.303 E27.60926
G1 X65.166 Y123.074 E27.6665
G1 X65.164 Y122.867 E27.67614
G1 X65.165 Y96.437 E28.90683
G1 X65.168 Y96.116 E28.92178
G1 X65.176 Y95.804 E28.93631
G1 X65.186 Y95.546 E28.94834
G1 X65.221 Y95.001 E28.97377
G1 X65.286 Y94.283 E29.00734
G1 X65.444 Y92.782 E29.07762
G1 X65.639 Y90.247 E29.196
G1 X65.762 Y87.702 E29.31465
G1 X65.815 Y84.602 E29.45902
G1 X65.817 Y61.816 E30.52003
G1 X65.824 Y61.333 E30.54252
G1 X65.836 Y60.957 E30.56004
G1 X65.861 Y60.458 E30.5833
G1 X65.947 Y59.541 E30.62619
G1 X66.037 Y58.994 E30.652
G1 X66.055 Y58.9 E30.65646
G1 X66.178 Y58.341 E30.68311
G1 X66.245 Y58.071 E30.69607
G1 X66.505 Y57.188 E30.73893
G1 X66.691 Y56.687 E30.76381
G1 X66.771 Y56.487 E30.77384
G1 X67.06 Y55.83 E30.80726
G1 X67.148 Y55.647 E30.81672
G1 X67.583 Y54.836 E30.85957
G1 X67.869 Y54.379 E30.88468
G1 X68.019 Y54.153 E30.89731
G1 X68.561 Y53.409 E30.94017
G0 F6000 X68.885 Y53.645
G1 F1200 X69.356 Y53.097 E30.97382
G1 X69.704 Y52.72 E30.99771
G1 X70.345 Y52.084 E31.03975
G1 X71.18 Y51.403 E31.08992
G1 X71.403 Y51.24 E31.10279
G1 X72.155 Y50.74 E31.14484
G1 X72.843 Y50.361 E31.18141
G1 X73.253 Y50.155 E31.20278
G1 X74.077 Y49.785 E31.24484
G1 X74.945 Y49.486 E31.28759
G1 X75.25 Y49.396 E31.30239
G1 X76.127 Y49.179 E31.34446
G1 X77.008 Y49.042 E31.38598
G1 X77.466 Y48.991 E31.40744
G1 X78.434 Y48.929 E31.4526
G1 X79.419 Y48.915 E31.49847
G1 X140.843 Y48.917 E34.35863
G1 X141.527 Y48.927 E34.39048
G1 X142.111 Y48.952 E34.4177
G1 X142.361 Y48.97 E34.42937
G1 X143.343 Y49.089 E34.47544
G1 X143.642 Y49.14 E34.48956
G1 X144.742 Y49.391 E34.5421
G1 X144.951 Y49.451 E34.55222
G1 X145.807 Y49.738 E34.59426
G1 X146.399 Y49.988 E34.62418
G1 X146.699 Y50.126 E34.63956
G1 X147.8 Y50.717 E34.69775
G1 X148.041 Y50.866 E34.71094
G1 X148.957 Y51.504 E34.76292
G1 X149.117 Y51.629 E34.77237
G1 X150.002 Y52.407 E34.82724
G1 X150.078 Y52.482 E34.83221
G1 X150.381 Y52.794 E34.85247
G1 X150.568 Y52.995 E34.86525
G1 X151.153 Y53.683 E34.9073
G1 X151.458 Y54.097 E34.93125
G1 X151.586 Y54.28 E34.94164
G1 X152.007 Y54.933 E34.97782
G1 X152.104 Y55.097 E34.98669
G1 X152.679 Y56.222 E35.04552
G1 X152.796 Y56.491 E35.05918
G1 X153.185 Y57.541 E35.11132
G1 X153.242 Y57.725 E35.12029
G1 X153.479 Y58.638 E35.16422
G1 X153.533 Y58.894 E35.1764
G1 X153.677 Y59.756 E35.21709
G1 X153.684 Y59.813 E35.21977
G1 X153.758 Y60.849 E35.26813
G1 X153.783 Y62.081 E35.32551
G1 X153.785 Y62.289 E35.33519
G1 X153.782 Y88.64 E36.56221
G1 X153.772 Y89.343 E36.59495
G1 X153.724 Y90.199 E36.63487
G1 X153.571 Y91.741 E36.70702
G1 X153.562 Y91.823 E36.71086
G1 X153.353 Y94.319 E36.82749
G1 X153.214 Y96.821 E36.94418
G1 X153.134 Y100.676 E37.12372
G1 X153.132 Y123.272 E38.17589
G1 X153.124 Y123.866 E38.20355
G1 X153.113 Y124.216 E38.21985
G1 X153.093 Y124.634 E38.23934
G1 X153.01 Y125.534 E38.28142
G1 X152.861 Y126.366 E38.32078
G1 X152.781 Y126.725 E38.33791
G1 X152.546 Y127.596 E38.37992
G1 X152.26 Y128.381 E38.41882
G1 X152.129 Y128.7 E38.43488
G1 X151.75 Y129.519 E38.4769
G1 X151.362 Y130.202 E38.51348
G1 X151.161 Y130.526 E38.53123
G1 X150.651 Y131.272 E38.57331
G1 X150.062 Y131.986 E38.61641
G1 X149.754 Y132.327 E38.6378
G1 X149.12 Y132.97 E38.67985
G1 X148.311 Y133.645 E38.72891
G1 X148.106 Y133.799 E38.74085
G1 X147.721 Y134.075 E38.76291
G1 X146.956 Y134.556 E38.80499
G1 X146.525 Y134.788 E38.82778
G1 X146.148 Y134.979 E38.84746
G1 X145.325 Y135.351 E38.88951
G1 X144.432 Y135.661 E38.93353
G1 X144.094 Y135.761 E38.94994
G1 X143.217 Y135.979 E38.99202
G1 X142.311 Y136.119 E39.03471
G1 X141.873 Y136.167 E39.05523
G1 X140.921 Y136.227 E39.09964
G1 X139.93 Y136.241 E39.14579
G1 X78.505 Y136.239 E42.006
G1 X77.824 Y136.229 E42.03771
G1 X77.245 Y136.204 E42.0647
G1 X76.98 Y136.185 E42.07707
G1 X76.026 Y136.071 E42.12181
G1 X75.757 Y136.026 E42.13451
G1 X74.608 Y135.765 E42.18937
G1 X74.39 Y135.702 E42.19994
G1 X73.535 Y135.413 E42.24196
G1 X72.951 Y135.166 E42.27149
G1 X72.604 Y135.006 E42.28928
G1 X71.801 Y134.592 E42.33135
G1 X71.06 Y134.123 E42.37219
G1 X70.704 Y133.876 E42.39236
G1 X69.986 Y133.329 E42.43439
G1 X69.35 Y132.752 E42.47438
G1 X69.266 Y132.669 E42.47988
G1 X68.922 Y132.312 E42.50296
G1 X68.776 Y132.153 E42.51301
G1 X68.195 Y131.461 E42.55509
G1 X67.859 Y130.997 E42.58176
G1 X67.594 Y130.608 E42.60368
G1 X67.119 Y129.84 E42.64573
G1 X66.668 Y128.928 E42.6931
G1 X66.549 Y128.654 E42.70701
G1 X66.141 Y127.541 E42.76221
G1 X66.083 Y127.349 E42.77155
G1 X65.859 Y126.468 E42.81388
G1 X65.807 Y126.217 E42.82582
G1 X65.686 Y125.509 E42.85926
G1 X65.679 Y125.457 E42.8617
G1 X65.59 Y124.295 E42.91597
G1 X65.566 Y123.066 E42.97321
G1 X65.564 Y122.867 E42.98247
G1 X65.565 Y96.441 E44.21298
G1 X65.568 Y96.12 E44.22793
G1 X65.576 Y95.82 E44.2419
G1 X65.586 Y95.562 E44.25392
G1 X65.62 Y95.037 E44.27842
G1 X65.699 Y94.168 E44.31905
G1 X65.845 Y92.786 E44.38376
G1 X66.039 Y90.26 E44.50173
G1 X66.16 Y87.759 E44.61832
G1 X66.215 Y84.55 E44.76777
G1 X66.217 Y61.822 E45.82608
G1 X66.224 Y61.339 E45.84857
G1 X66.236 Y60.977 E45.86544
G1 X66.261 Y60.478 E45.8887
G1 X66.346 Y59.579 E45.93075
G1 X66.43 Y59.07 E45.95477
G1 X66.448 Y58.976 E45.95923
G1 X66.566 Y58.437 E45.98492
G1 X66.633 Y58.167 E45.99788
G1 X66.889 Y57.301 E46.03993
G1 X67.063 Y56.836 E46.06304
G1 X67.143 Y56.636 E46.07307
G1 X67.421 Y56.004 E46.10522
G1 X67.509 Y55.821 E46.11468
G1 X67.936 Y55.025 E46.15674
G1 X68.203 Y54.6 E46.18011
G1 X68.353 Y54.374 E46.19274
G1 X68.885 Y53.645 E46.23477
G1 F1500 E39.73477
;MESH:pizero-scover.stl
G0 F6000 X83.454 Y58.45
G0 X83.454 Y60.104
G0 X83.65 Y67.1
;TYPE:WALL-INNER
G1 F1500 E46.23477
G1 F1200 X136.35 Y67.1 E48.6887
G1 X136.35 Y60.3 E49.00534
G1 X83.65 Y60.3 E51.45927
G1 X83.65 Y67.1 E51.7759
G0 F6000 X84.05 Y66.7
;TYPE:WALL-OUTER
G1 F1200 X135.95 Y66.7 E54.19259
G1 X135.95 Y60.7 E54.47197
G1 X84.05 Y60.7 E56.88865
G1 X84.05 Y66.7 E57.16804
G1 F1500 E50.66804
G0 F6000 X83.75 Y66.7
G0 X87.409 Y67.27
G0 X87.409 Y65.835
G0 X143.702 Y90.77
G0 X142.548 Y89.851
G0 X141.826 Y90.624
;TYPE:WALL-INNER
G1 F1500 E57.16804
G1 F1200 X141.529 Y90.678 E57.18209
G1 X141.373 Y90.685 E57.18937
G1 X78.623 Y90.684 E60.11127
G1 X78.471 Y90.678 E60.11835
G1 X78.174 Y90.624 E60.13241
G1 X77.914 Y90.527 E60.14533
G1 X77.671 Y90.381 E60.15853
G1 X77.452 Y90.188 E60.17212
G1 X77.278 Y89.972 E60.18504
G1 X77.146 Y89.726 E60.19804
G1 X77.057 Y89.449 E60.21158
G1 X77.017 Y89.157 E60.22531
G1 X77.015 Y89.1 E60.22796
G1 X77.016 Y61.323 E61.52138
G1 X77.031 Y61.091 E61.5322
G1 X77.095 Y60.808 E61.54571
G1 X77.206 Y60.55 E61.55879
G1 X77.361 Y60.315 E61.5719
G1 X77.56 Y60.107 E61.5853
